X:1
T: The Ruins of Killmallock
C:
R:Jig
Q:180
K:A
M:6/8
L:1/16
|:AB|c2B2c2 d2c2d2|e2c2A2 A2G2E2|c2B2d2 c2B2A2|G2E2F2 G2A2B2|
c2B2c2 d2c2d2|e2c2A2 B2c2d2|c2B2A2 B2G2E2|1E2A2A2 A4AB:|2E2A2A2 A4e2|
|:a2g2a2 e2c2e2|a2g2f2 e2d2c2|d2c2d2 B2G2B2|A2c2d2 e2f2g2|
a2g2a2 e2c2e2|a2g2f2 e2d2c2|B2c2d2 e2f2g2|1a2A2A2 A4e2:|2a2A2A2 A4||
